src/assets/Imgs/darkMenu/event.svg

<svg fill="none" height="24" viewBox="0 0 24 24" width="24" xmlns="http://www.w3.org/2000/svg"><path d="m10 8v-2m0 12v-2m0-3v-2m-4 10c-2.20914 0-4-1.7909-4-4v-1c0-.5523.46-.9837.98189-1.1644 1.17464-.4067 2.01811-1.5226 2.01811-2.8356s-.84347-2.42895-2.01811-2.83563c-.52189-.18069-.98189-.61209-.98189-1.16437v-1c0-2.20914 1.79086-4 4-4h12c2.2091 0 4 1.79086 4 4v1c0 .55228-.46.98368-.9819 1.16437-1.1746.40668-2.0181 1.52263-2.0181 2.83563s.8435 2.4289 2.0181 2.8356c.5219.1807.9819.6121.9819 1.1644v1c0 2.2091-1.7909 4-4 4z" stroke="#b0b0b0" stroke-linecap="round" stroke-linejoin="round" stroke-width="1.5"/></svg>

<svg width="24" height="24" viewBox="0 0 24 24" fill="none" xmlns="http://www.w3.org/2000/svg">
<g id="ticket">
<path id="Vector" d="M10 8V6M10 18V16M10 13V11M6 21C3.79086 21 2 19.2091 2 17V16C2 15.4477 2.46 15.0163 2.98189 14.8356C4.15653 14.4289 5 13.313 5 12C5 10.687 4.15653 9.57105 2.98189 9.16437C2.46 8.98368 2 8.55228 2 8V7C2 4.79086 3.79086 3 6 3H18C20.2091 3 22 4.79086 22 7V8C22 8.55228 21.54 8.98368 21.0181 9.16437C19.8435 9.57105 19 10.687 19 12C19 13.313 19.8435 14.4289 21.0181 14.8356C21.54 15.0163 22 15.4477 22 16V17C22 19.2091 20.2091 21 18 21H6Z" stroke="#B0B0B0" stroke-width="1.5" stroke-linecap="round" stroke-linejoin="round"/>
</g>
</svg>
